X:1
T:TEST:Shenei Zeitim
M:4/4
K:C
G|G2G2A4|(FEF) D (A2G) G|\
[M:4/4] [K:C] c2c2(B2c2)|(f2e2)e2d G|
w:She-nei zei-tim nich-__ra-tim_ \
  be-gan na-'ul_ yats-_hi-ru. Le-
G|G2G2A4|(FEF) D (A2G) G|\
[M:4/4]\
[K:C  ]\
c2c2(B2c2)|(f2e2)e2d G|
w:She-nei zei-tim nich-__ra-tim_ be-\
  gan na-'ul_ yats-_hi-ru. Le-

